folder-heart.svg

<svg fill="currentColor" viewBox="0 0 24 24"><path d="M20 6h-8l-2-2H4c-1.11 0-2 .89-2 2v12a2 2 0 0 0 2 2h16c1.1 0 2-.9 2-2V8c0-1.1-.9-2-2-2m-1.58 7.5L15 17l-3.41-3.5c-.37-.38-.59-.88-.59-1.45 0-1.13.9-2.05 2-2.05.54 0 1.05.23 1.42.61l.58.59.59-.6c.36-.37.87-.6 1.41-.6 1.1 0 2 .92 2 2.05 0 .56-.22 1.08-.58 1.45"/></svg>

<svg  viewBox="0 0 24 24" fill="currentColor"><path  d="M20 6H12L10 4H4C2.89 4 2 4.89 2 6V18C2 19.1 2.89 20 4 20H20C21.1 20 22 19.1 22 18V8C22 6.9 21.1 6 20 6M18.42 13.5L15 17L11.59 13.5C11.22 13.12 11 12.62 11 12.05C11 10.92 11.9 10 13 10C13.54 10 14.05 10.23 14.42 10.61L15 11.2L15.59 10.6C15.95 10.23 16.46 10 17 10C18.1 10 19 10.92 19 12.05C19 12.61 18.78 13.13 18.42 13.5Z"/></svg>
